X:1
T:Title
L:1/8
Q:1/4=70
M:3/4
K:F
V:1 treble nm="Church Organ, Staff"
V:1
 AB A d2 c- | cf e e2 d- | dc BA AB- | B A2 G2 F- | F2 AA- A/G/G- | G c2 c- c/=B/B- | B A2 A ed- | %7
w: By~Mr.~G.~B.~Lissant * * * *|||||||
 d =B2 B2 A- | A2 cc AG- | G ^F2 G AB- | B =B2 c Bc- | c ^c2 d3- | d d2 d ^cf- | f e2 e dc- | %14
w: |||||||
 c B2 A BG- | G2 F .F3 |] %16
w: ||

